X:29
T:Health to the Ladies, A     Jig    Allan's  #29
C:Trad/Anon
B:Allan's Irish Fiddler (pub. Mozart Allen,  Glascow) date unknown
Z:FROM ALLAN'S TO NOTEWORTHY, FROM NOTEWORTHY TO ABC, MIDI AND .TXT BY VINCE
BRENNAN Dec. 2002 (HTTP://WWW.SOSYOURMOM.COM)
I:abc2nwc
M:6/8
L:1/8
K:A
a|ecA BAF|AFE EFA|Bdc BAB|cBBB2a|
ecA BAF|AFE EFA|Bdc BAB|cAA A2:|
|:B|cee dff|cee ecA|cee dfa|ecAB2A|
cee dff|cee ecA|Bdc BAB|cAA A2:|
